dist/img/svg/ic_exel.svg

<svg width="20" height="19" viewBox="0 0 20 19" fill="none" xmlns="http://www.w3.org/2000/svg">
<path d="M11.0238 0.144889C10.8813 0.0258167 10.6925 -0.0235854 10.51 0.010616L0.51 1.9107C0.21375 1.96644 0 2.22738 0 2.53266V16.4666C0 16.7706 0.21375 17.0328 0.51 17.0886L10.51 18.9886C10.5475 18.9962 10.5875 19 10.625 19C10.7688 19 10.9113 18.9493 11.0238 18.8544C11.1675 18.734 11.25 18.5541 11.25 18.3666V0.632576C11.25 0.443835 11.1675 0.265227 11.0238 0.144889ZM10 17.6029L1.25 15.9409V3.05835L10 1.39641V17.6029Z" fill="white"/>
<path d="M19.375 2.53266H10.625C10.28 2.53266 10 2.81641 10 3.16602C10 3.51564 10.28 3.79938 10.625 3.79938H18.75V15.1998H10.625C10.28 15.1998 10 15.4836 10 15.8332C10 16.1828 10.28 16.4666 10.625 16.4666H19.375C19.72 16.4666 20 16.1828 20 15.8332V3.16602C20 2.81641 19.72 2.53266 19.375 2.53266Z" fill="white"/>
<path d="M13.125 5.0661H10.625C10.28 5.0661 10 5.34985 10 5.69946C10 6.04908 10.28 6.33282 10.625 6.33282H13.125C13.47 6.33282 13.75 6.04908 13.75 5.69946C13.75 5.34985 13.47 5.0661 13.125 5.0661Z" fill="white"/>
<path d="M13.125 7.59954H10.625C10.28 7.59954 10 7.88329 10 8.2329C10 8.58252 10.28 8.86626 10.625 8.86626H13.125C13.47 8.86626 13.75 8.58252 13.75 8.2329C13.75 7.88329 13.47 7.59954 13.125 7.59954Z" fill="white"/>
<path d="M13.125 10.133H10.625C10.28 10.133 10 10.4167 10 10.7663C10 11.1159 10.28 11.3997 10.625 11.3997H13.125C13.47 11.3997 13.75 11.1159 13.75 10.7663C13.75 10.4167 13.47 10.133 13.125 10.133Z" fill="white"/>
<path d="M13.125 12.6664H10.625C10.28 12.6664 10 12.9501 10 13.2998C10 13.6494 10.28 13.9331 10.625 13.9331H13.125C13.47 13.9331 13.75 13.6494 13.75 13.2998C13.75 12.9501 13.47 12.6664 13.125 12.6664Z" fill="white"/>
<path d="M16.875 5.0661H15.625C15.28 5.0661 15 5.34985 15 5.69946C15 6.04908 15.28 6.33282 15.625 6.33282H16.875C17.22 6.33282 17.5 6.04908 17.5 5.69946C17.5 5.34985 17.22 5.0661 16.875 5.0661Z" fill="white"/>
<path d="M16.875 7.59954H15.625C15.28 7.59954 15 7.88329 15 8.2329C15 8.58252 15.28 8.86626 15.625 8.86626H16.875C17.22 8.86626 17.5 8.58252 17.5 8.2329C17.5 7.88329 17.22 7.59954 16.875 7.59954Z" fill="white"/>
<path d="M16.875 10.133H15.625C15.28 10.133 15 10.4167 15 10.7663C15 11.1159 15.28 11.3997 15.625 11.3997H16.875C17.22 11.3997 17.5 11.1159 17.5 10.7663C17.5 10.4167 17.22 10.133 16.875 10.133Z" fill="white"/>
<path d="M16.875 12.6664H15.625C15.28 12.6664 15 12.9501 15 13.2998C15 13.6494 15.28 13.9331 15.625 13.9331H16.875C17.22 13.9331 17.5 13.6494 17.5 13.2998C17.5 12.9501 17.22 12.6664 16.875 12.6664Z" fill="white"/>
<path d="M8.59625 11.6163L4.22125 6.54943C3.99125 6.28469 3.5975 6.25935 3.33875 6.4899C3.07875 6.72044 3.0525 7.12072 3.28 7.38293L7.655 12.4498C7.77875 12.5929 7.95125 12.6664 8.125 12.6664C8.27125 12.6664 8.4175 12.6145 8.5375 12.5093C8.7975 12.2788 8.82375 11.8798 8.59625 11.6163Z" fill="white"/>
<path d="M8.50875 5.83373C8.23625 5.61713 7.84375 5.66906 7.63125 5.94394L3.25625 11.6442C3.045 11.9203 3.09375 12.3193 3.36625 12.5334C3.48125 12.6233 3.61625 12.6664 3.75 12.6664C3.935 12.6664 4.12 12.5828 4.2425 12.4232L8.6175 6.72297C8.83 6.44556 8.78125 6.04781 8.50875 5.83373Z" fill="white"/>
</svg>

<svg width="20" height="19" viewBox="0 0 20 19" fill="none" xmlns="http://www.w3.org/2000/svg"><path d="M11.024.145A.623.623 0 0010.51.01l-10 1.9a.63.63 0 00-.51.622v13.934a.63.63 0 00.51.622l10 1.9a.62.62 0 00.514-.134.64.64 0 00.226-.488V.633a.635.635 0 00-.226-.488zM10 17.603L1.25 15.94V3.058L10 1.396v16.207z" fill="#fff"/><path d="M19.375 2.533h-8.75a.63.63 0 00-.625.633c0 .35.28.633.625.633h8.125v11.4h-8.125a.63.63 0 00-.625.634c0 .35.28.634.625.634h8.75a.63.63 0 00.625-.634V3.166a.63.63 0 00-.625-.633z" fill="#fff"/><path d="M13.125 5.066h-2.5A.63.63 0 0010 5.7c0 .35.28.634.625.634h2.5a.63.63 0 00.625-.634.63.63 0 00-.625-.633zm0 2.534h-2.5a.63.63 0 00-.625.633c0 .35.28.633.625.633h2.5a.63.63 0 00.625-.633.63.63 0 00-.625-.633zm0 2.533h-2.5a.63.63 0 00-.625.633c0 .35.28.634.625.634h2.5a.63.63 0 00.625-.634.63.63 0 00-.625-.633zm0 2.533h-2.5A.63.63 0 0010 13.3c0 .35.28.633.625.633h2.5a.63.63 0 00.625-.633.63.63 0 00-.625-.634zm3.75-7.6h-1.25A.63.63 0 0015 5.7c0 .35.28.634.625.634h1.25A.63.63 0 0017.5 5.7a.63.63 0 00-.625-.633zm0 2.534h-1.25a.63.63 0 00-.625.633c0 .35.28.633.625.633h1.25a.63.63 0 00.625-.633.63.63 0 00-.625-.633zm0 2.533h-1.25a.63.63 0 00-.625.633c0 .35.28.634.625.634h1.25a.63.63 0 00.625-.634.63.63 0 00-.625-.633zm0 2.533h-1.25A.63.63 0 0015 13.3c0 .35.28.633.625.633h1.25a.63.63 0 00.625-.633.63.63 0 00-.625-.634zm-8.279-1.05L4.221 6.55a.619.619 0 00-.882-.06.638.638 0 00-.059.894l4.375 5.067a.62.62 0 00.882.06.64.64 0 00.06-.894z" fill="#fff"/><path d="M8.509 5.834a.62.62 0 00-.878.11l-4.375 5.7a.64.64 0 00.11.89.62.62 0 00.876-.11l4.375-5.701a.639.639 0 00-.108-.89z" fill="#fff"/></svg>
